X: 40792
T: Town Of Cootehill, The
R: jig
M: 6/8
K: Dmajor
|:AG|FAF DFA|GBG E2 d|cec ABc|dcB A2 G|
FAF DFA|G/A/BG E2 d|c/d/ec ABc|dce d:|
|:fg|add bdd|add fed|cec ABc|dfb afg|
add bdd|add fed|cec ABc|dce d:|

